svg/tube.svg

<svg xmlns="http://www.w3.org/2000/svg" viewBox="0 0 20 63" enable-background="new 0 0 20 63"><style type="text/css">.st0{fill:#343434;}</style><title>tube</title><desc>Created with Sketch.</desc><path class="st0" d="M10 58c1.7 0 3-1.3 3-3v-32h-6v32c0 1.7 1.3 3 3 3zM18 0h-16c-1.1 0-2 .9-2 2v4c0 1.1.9 2 2 2v47c0 4.4 3.6 8 8 8s8-3.6 8-8v-47c1.1 0 2-.9 2-2v-4c0-1.1-.9-2-2-2zm-15 3h14v2h-14v-2zm12 52c0 2.8-2.2 5-5 5s-5-2.2-5-5v-47h10v47z"/></svg>

<svg xmlns="http://www.w3.org/2000/svg" viewBox="0 0 20 63"><path d="M10 58c1.7 0 3-1.3 3-3V23H7v32c0 1.7 1.3 3 3 3zm8-58H2C.9 0 0 .9 0 2v4c0 1.1.9 2 2 2v47c0 4.4 3.6 8 8 8s8-3.6 8-8V8c1.1 0 2-.9 2-2V2c0-1.1-.9-2-2-2zM3 3h14v2H3V3zm12 52c0 2.8-2.2 5-5 5s-5-2.2-5-5V8h10v47z" fill="#343434"/></svg>
